!!!!SEGMENT: pl-wumfc--n50515_moniuszko-stanislaw--lirnik-wioskowy-liro-ty-moja-spiewna.krn
!!!cenid: 18xx:4076
!!!COM: Moniuszko, Stanisław
!!!COM-rismID: pe30008351
!!!CDT: 1819/05/05-1872/06/04
!!!CNT: Polish
!!!OTL: Lirnik wioskowy/Liro ty moja śpiewna
!!!PDT:
!!!AGN:
!!!SMS-siglum: PL-Wumfc
!!!SMS-shelfmark: N50515
!!!SMS-shelfwork: 001 G
!!!SMS-variant:
!!!SMS-altvar:
!!!NIFC-rismSourceID: 1001166115
!!!NIFC-rismChildID: 1001166115
!!!NIFC-islandoraID: pl-wumfc:6615
!!!URL-pdf-islandora: https://repozytorium.nifc.pl/islandora/object/pl-wumfc%3A6615/datastream/PDF/view
!!!URL-scan: https://polish.musicsources.pl/pl/lokalizacje/galeria/druki-muzyczne/12529-lirnik-wioskowy @EN{Scan on Polish Music Sources Website} @PL{Skany w portalu Dziedzictwo Muzyki Polskiej w otwartym dostępie}
!!!ONB-nifc:
!!!OMD: Allegro moderato. (M. [quarter-dot]=66.)
!!!AIN: 1 piano 1 vox
!!!key: E
**kern	**kern	**dynam	**kern	**text	**dynam
*part2	*part2	*part2	*part1	*part1	*part1
*staff3	*staff2	*	*staff1	*staff1	*
*I"[Pianoforte]	*I"[Pianoforte]	*	*I"[Voce]	*	*
*	*I'	*	*I'	*	*
*Ipiano	*Ipiano	*	*Ivox	*	*
*ICklav	*ICklav	*	*ICvox	*	*
*IGacmp	*IGacmp	*	*IGsolo	*	*
*clefF4	*clefG2	*	*clefG2	*	*
*k[f#c#g#d#]	*k[f#c#g#d#]	*	*k[f#c#g#d#]	*	*
*E:	*E:	*	*E:	*	*
*M6/8	*M6/8	*	*M6/8	*	*
=1	=1	=1	=1	=1	=1
*	*^	*	*	*	*
8r	8r	2ryy	ff	2.r	.	.
8r	8r	.	.	.	.	.
8B 8BB'\	8b 8a 8f# 8d#'/	.	.	.	.	.
8E 8EE'/	8ee 8b 8g# 8e'/	.	.	.	.	.
8r	8r	8ryy	.	.	.	.
*ped	*	*	*	*	*	*
8BB 8EE'/	8ee'/	8g#\	sf	.	.	.
=2	=2	=2	=2	=2	=2	=2
8BB 8EE'/	(16dd#^^/LL	8.b\L	.	2.r	.	.
.	16ee/	.	.	.	.	.
8r	16ff#/	.	.	.	.	.
.	16cc#/	8.a\	.	.	.	.
*Xped	*	*	*	*	*	*
8BB 8EE/	16dd#/	.	.	.	.	.
.	16ee/JJ	.	.	.	.	.
*ped	*	*	*	*	*	*
8BB 8EE/	16b/LL	8.g#\	.	.	.	.
.	16dd#/	.	.	.	.	.
8r	16ee/	.	.	.	.	.
.	16g#/	8.e\J	.	.	.	.
*Xped	*	*	*	*	*	*
8BB 8EE/	16a/	.	.	.	.	.
.	16cc#/JJ	.	.	.	.	.
=3	=3	=3	=3	=3	=3	=3
*ped	*	*	*	*	*	*
8BB 8EE/	16f#/LL	8.d#\L	.	2.r	.	.
.	16g#/	.	.	.	.	.
8r	16a/	.	.	.	.	.
.	16c#/	8.A\J	.	.	.	.
8BB 8EE/	16d#/	.	.	.	.	.
.	16f#/JJ	.	.	.	.	.
*Xped	*	*	*	*	*	*
8BB 8EE/	8e/)	8G#\	.	.	.	.
8r	8r	4ryy	p	.	.	.
8BB\	8e 8G#/	.	.	.	.	.
*	*v	*v	*	*	*	*
=4	=4	=4	=4	=4	=4
8BB\	8d# 8A< 8F#</	.	8d#/	Li-	.
8r	8r	.	8c#/	-ro	.
8D# 8BB\	8B< 8A< 8F#</	.	8B/	ty	.
8E 8BB\	8B< 8G#</	.	4e/	mo-	.
8r	8r	.	.	.	.
8BB\	8g# 8e 8B/	.	8g#/	-ja	.
!!LO:LB:g=original
=5	=5	=5	=5	=5	=5
8F# 8BB\	8b 8d# 8B/	.	(4b\	śpièw-	.
8r	8r	.	.	.	.
8F# 8BB\	8a 8d# 8B/	.	8cc#\)	.	.
8G# 8E\	8g# 8e 8B/	.	4b\	-na!	.
8r	8r	.	.	.	.
8E\	8g# 8B/	.	8g#/	z_cza-	.
=6	=6	=6	=6	=6	=6
8E 8C#\	8e 8G#/	.	8e/L	-ro-	.
8r	8r	.	8d#/J	.	.
8E 8C#\	8e 8G#/	.	8e/	-dziej-	.
8E 8GG#\	8g# 8B/	.	4g#/	-skie-	.
8r	8r	.	.	.	.
8D# 8BB/	8f# 8A/	.	8f#/	-go	.
=7	=7	=7	=7	=7	=7
8E\	8e 8G#/	.	(4e/	drew-	.
8r	8r	.	.	.	.
8E\	8g# 8G#/	.	8g#/)	.	.
8E\	8B 8G#/	.	4B/	-na	.
8r	8r	.	.	.	.
(8E 8GG#/	(8B/	.	8B/	snadź	.
=8	=8	=8	=8	=8	=8
8E 8AA/)	8c# 8F#/)	.	8c#/L	cie-	.
8r	8r	.	8d#/J	.	.
(8E 8AA/	8f# 8c# 8F#/	.	8e/	-bie	.
8E 8AA#X/)	8f# 8c# 8F#/	.	4f#/	wy-	.
8r	8r	.	.	.	.
(>8C# 8AA#/	8f# 8e 8c#/	.	8f#/	-ro-	.
=9	=9	=9	=9	=9	=9
*	*^	*	*	*	*
8BB/)	8B/	2ryy	.	4f#/	-bio-	.
8r	8r	.	ff	.	.	.
8BB 8BBB'/	8b 8a 8f# 8d# 8B'/	.	.	8B/	-no!	.
8BB 8EE'/	8b 8g# 8e 8B'/	.	.	4r	.	.
8r	8r	8ryy	.	.	.	.
!	!	!	!LO:HP:a	!	!	!
8BB 8EE/	8ee'/	8g#\	>	8r	.	.
!!LO:LB:g=original
=10	=10	=10	=10	=10	=10	=10
*ped	*	*	*	*	*	*
8BB 8EE/	(16dd#^^/LL	8.b\L	.	2.r	.	.
.	16ee/	.	.	.	.	.
8r	16ff#/	.	.	.	.	.
.	16cc#/	8.a\	.	.	.	.
*Xped	*	*	*	*	*	*
8BB 8EE/	16dd#/	.	.	.	.	.
.	16ee/JJ	.	.	.	.	.
*ped	*	*	*	*	*	*
8BB 8EE/	16b/LL	8.g#\	.	.	.	.
.	16cc#/	.	.	.	.	.
8r	16ddn/	.	.	.	.	.
.	16g#/	8.e#X\J	.	.	.	.
*Xped	*	*	*	*	*	*
8G# 8BB 8EE/	16a/	.	.	.	.	.
.	16b/JJ	.	.	.	.	.
=11	=11	=11	=11	=11	=11	=11
*ped	*	*	*	*	*	*
4F# 4AA 4EE/	16f#/LL	8.c#\L	.	2.r	.	.
.	16g#/	.	.	.	.	.
.	16a/	.	.	.	.	.
.	16c#/	8.A\J	.	.	.	.
8BB 8EE/	16g#/	.	.	.	.	.
.	16f#JJ 16d#/	.	.	.	.	.
8BB 8EE/	8e/)	8G#\	]	.	.	.
*Xped	*	*	*	*	*	*
8r	8r	4ryy	p	.	.	.
8BB 8EE/	8e 8G#/	.	.	.	.	.
*	*v	*v	*	*	*	*
=12	=12	=12	=12	=12	=12
8BB 8EE/	8d# 8A 8F#/	.	8d#/	sko-	.
8r	8r	.	8c#/	-ro	.
8BB 8EE/	8B 8A 8F#/	.	8B/	cię	.
8BB 8EE/	8B 8G#/	.	8B/L	wez-	.
8r	8r	.	8e/J	.	.
8BB 8EE/	8g# 8e 8B/	.	8g#/	-mę	.
=13	=13	=13	=13	=13	=13
8BB 8EE/	8b 8a 8f# 8d# 8B/	.	(4b\	w_rę-	.
8r	8r	.	.	.	.
8BB 8EE/	8a 8d# 8B/	.	8cc#\)	.	.
8BB 8EE/	8g# 8e 8B/	.	8b\	-ce,	.
8r	8r	.	8r	.	.
8E\	8g# 8e 8B/	.	8g#/	gdy	.
!!LO:PB:g=original
=14	=14	=14	=14	=14	=14
*	*^	*	*	*	*
!	!	!	!LO:HP:a	!	!	!
8D#\	8f# 8B/	4.ryy	<	4f#/	rącz-	.
8r	8r	.	.	.	.	.
(<8F# 8D#\	(>8b 8f# 8B/	.	.	8f#/	-kę	.
4F# 4C#\	8a#X/L	4e\	.	8a#X/L	twą	.
.	8g#/	.	.	8g#/J	.	.
8A#X 8E\	8f#/J	8c#\	.	8f#/	za-	.
=15	=15	=15	=15	=15	=15	=15
4B 4D#\	4f#/	4f#\	.	(4f#/	-krę-	.
8F# 8BB\	8dd# 8f# 8d#/	2ryy	.	8dd#\)	.	.
4F# 4AA#X\	4cc# 4f# 4c#/	.	.	(4cc#\	-cę,	.
8F# 8D#\	8f# 8B/	.	[	8f#/)	.	.
*	*v	*v	*	*	*	*
=16	=16	=16	=16	=16	=16
*	*	*	*^	*	*
*	*	*	*	*Xtuplet	*	*
!	!	!LO:HP:a	!	!	!	!
4C#\)	4a#X 4f# 4c#/)	>	8a#X/	24a#\LL	za-	.
.	.	.	.	24b\	.	.
.	.	.	.	24a#\JJ	.	.
.	.	.	8g#/	8ryy	-raz	.
8C#\	(>8a# 8f# 8c#/	.	8a#/	2ryy	mi	.
4C#\	4b 4e#X 4c#/	.	4b\	.	ki-	.
8G# 8C#\	8e# 8B/	]]	8e#X/	.	-pi	.
*	*	*	*v	*v	*	*
=17	=17	=17	=17	=17	=17
*	*^	*	*	*	*
8F# 8C# 8FF#\	8f# 8A#X/)	2ryy	.	8f#/	ło-	.
8r	8r	.	f	8f#/	-no;	.
8FF# 8FFF#'/	8f# 8e 8c# 8A#'/	.	.	8r	.	.
8BB 8BBB'/	8f# 8d# 8B'/	.	.	4r	.	.
8r	8r	8ryy	p	.	.	.
8F# 8BB\	(8b/	8d#\	.	8r	.	.
=18	=18	=18	=18	=18	=18	=18
*^	*	*	*	*	*	*
*ped	*	*	*	*	*	*	*
(4.cn/	4F# 4BB\	16an/LL	(4.e^\	.	2.r	.	.
.	.	16b/	.	.	.	.	.
.	.	16ccn/	.	.	.	.	.
.	.	16f#/	.	.	.	.	.
*Xped	*	*	*	*	*	*	*
.	8F# 8BB\	16gn/	.	.	.	.	.
.	.	16a/JJ	.	.	.	.	.
4.B/)	4F# 4BB\	4b/	4.d#\)	.	.	.	.
.	8F# 8BB\	8b/)	.	.	.	.	.
!!LO:LB:g=original
=19	=19	=19	=19	=19	=19	=19	=19
*ped	*	*	*	*	*	*	*
(4.cn/	4F# 4BB\	(16a/LL	(4.e^\	.	4r	.	.
.	.	16b/	.	.	.	.	.
.	.	16ccn/	.	.	.	.	.
.	.	16f#/	.	.	.	.	.
*Xped	*	*	*	*	*	*	*
.	8F# 8BB\	16gn/	.	.	8r	.	.
.	.	16a/JJ	.	.	.	.	.
4.B/)	4F# 4BB\	4b/)	4.d#\)	.	4r	.	.
.	8BB\	8b/	.	.	[8b\	czu-	.
*v	*v	*	*	*	*	*	*
*	*v	*v	*	*	*	*
=20	=20	=20	=20	=20	=20
8G#X 8E\	8b 8dn/	.	8b/L]	.	.
8r	8r	.	8a/J	.	.
8G# 8E\	8e 8d/	.	8b\	-ję	.
8A 8E 8AA\	8a 8c#/	.	8cc#\	ra-	.
8r	8r	.	8a/	-dość	.
8A 8E 8AA\	8e 8c#/	.	8e/	nie-	.
=21	=21	=21	=21	=21	=21
(<4A 4Dn\	(>4f# 4dn^/	.	(4f#/	-zna-	.
8A 8F#\	8a 8d/	.	8a/)	.	.
8A\)	8e 8c#/)	.	8e/	-ną,	.
8r	8r	.	8r	.	.
8A 8E 8AA\	8a 8c#/	.	[8a/	jak-	.
=22	=22	=22	=22	=22	=22
8F# 8Dn\	8a 8cn/	.	8a/]	.	.
8r	8r	.	8gn/	-by	.
8F# 8D\	8dn 8c/	.	8a/	na	.
8Gn 8D 8GGn\	8gn 8B/	.	8b/L	ser-	.
8r	8r	.	8g/J	.	.
8G 8D 8GG\	8d 8B/	.	8dn/	-cu	.
=23	=23	=23	=23	=23	=23
(<4Gn 4Cn\	(>4e 4cn/	.	(4e/	gra-	.
8G 8E\	8gn 8c/	.	8gn/)	.	.
8G\)	8dn 8B/)	.	8dn/	-no,	.
8r	8r	.	8r	.	.
(<8BB 8GGn/	(>8d 8B/	.	8d/	i	.
!!LO:LB:g=original
=24	=24	=24	=24	=24	=24
!	!LO:TX:a:i:t=riten.	!	!LO:TX:a:i:t=riten.	!	!
4C#X 4FF#X/	4e 4A#X/	<	4e/	smut-	.
8BB/	8f# 8d#X 8An/	.	8f#/	-no,	.
4E\	4gn 4e 4Gn/	.	4gn/	i	.
8E 8Cn/	8a 8e/	[	8a/	we-	.
=25	=25	=25	=25	=25	=25
*	*^	*	*	*	*
!	!LO:TX:a:B:t=a tempo	!	!	!LO:TX:a:B:t=a tempo	!	!
8F# 8BB'/)	8b 8d#'/)	2ryy	.	2.b\	-so-	.
8r	8r	.	.	.	.	.
!	!	!	!LO:DY:rj	!	!	!
8BB 8BBB'/	8bb 8aa 8ff# 8dd# 8b'\	.	ff	.	.	.
8E 8BB 8EE'/	8bb 8gg# 8ee 8b'\	.	.	.	.	.
8r	8r	8ryy	.	.	.	.
8E 8BB 8EE/	8eee/	8gg#\	f	.	.	.
=26	=26	=26	=26	=26	=26	=26
*ped	*	*	*	*	*	*
4BB 4EE/	(16ddd#/LL	8.bb\L	.	4B/	-ło	.
.	16eee/	.	>	.	.	.
.	16fff#/	.	.	.	.	.
.	16ccc#/	8.aa\	.	.	.	.
*Xped	*	*	*	*	*	*
8BB 8EE/	16ddd#/	.	.	8r	.	.
.	16eee/JJ	.	.	.	.	.
*ped	*	*	*	*	*	*
4BB 4EE/	16bb/LL	8.gg#\	.	4r	.	.
.	16ddd#/	.	.	.	.	.
.	16eee/	.	.	.	.	.
.	16gg#/	8.ee\J	.	.	.	.
*Xped	*	*	*	*	*	*
8BB 8EE/	16aa/	.	.	8r	.	.
.	16ccc#/JJ	.	.	.	.	.
=27	=27	=27	=27	=27	=27	=27
*ped	*	*	*	*	*	*
4BB 4EE/	16ff#/LL	8.dd#\L	.	2.r	.	.
.	16gg#/	.	.	.	.	.
.	16aa/	.	.	.	.	.
.	16cc#/	8.a\J	.	.	.	.
8BB 8EE/	16dd#/	.	.	.	.	.
.	16ff#/JJ	.	.	.	.	.
*Xped	*	*	*	*	*	*
4BB 4EE/	8ee/L	4g#\	]	.	.	.
.	8b/J)	.	.	.	.	.
8BB 8EE/	8ee/	8g#\	mf	.	.	.
!!LO:LB:g=original
=28	=28	=28	=28	=28	=28	=28
*	*	*	*	*^	*	*
*ped	*	*	*	*	*	*	*
4BB 4EE/	(16dd#^^/LL	8.b\L	.	4b^\	4ryy	Jam	.
.	16ee/	.	.	.	.	.	.
!	!	!	!LO:HP:t=diminuendo	!	!	!	!
.	16ff#/	.	>	.	.	.	.
.	16cc#/	8.a\	.	.	.	.	.
*Xped	*	*	*	*	*	*	*
8BB 8EE/	16dd#/	.	.	8a/	8ryy	szczę-	.
.	16ee/JJ	.	.	.	.	.	.
*ped	*	*	*	*	*	*	*
4BB 4EE/	16b/LL	8.g#\	.	8g#/	24g#\LL	-śli-	.
.	.	.	.	.	24a\	.	.
.	16dd#/	.	.	.	.	.	.
.	.	.	.	.	24g#\JJ	.	.
.	16ee/	.	.	8.f#/	4ryy	-wy,	.
.	16g#/	8.e\J	.	.	.	.	.
*Xped	*	*	*	*	*	*	*
8BB 8EE/	16a/	.	.	.	.	.	.
.	16cc#/JJ	.	.	16g#/	.	bo-	.
*	*	*	*	*v	*v	*	*
=29	=29	=29	=29	=29	=29	=29
*ped	*	*	*	*	*	*
4BB 4EE/	16f#/LL	8.d#\L	.	(4a/	-ga-	.
.	16g#/	.	.	.	.	.
.	16a/	.	.	.	.	.
.	16c#/	8.A\J	.	.	.	.
8BB 8EE/	16d#/	.	.	8d#/)	.	.
.	16f#/JJ	.	.	.	.	.
*Xped	*	*	*	*	*	*
8BB 8EE/	4e/)	4G#\	.	4e/	-ty,	.
8r	.	.	.	.	.	.
8GG#/	8B/	8ryy	.	8r	.	.
*	*v	*v	*	*	*	*
=30	=30	=30	=30	=30	=30
*^	*	*	*	*	*
!LO:TX:t=P:problem:mixed beam	!	!	!LO:HP:a	!	!	!
8B>\L	8AA\L	8c#/L	<	8c#/L	gdy	<
8A/	8FF#\	8d# 8B/	.	8d#/J	.	.
8G#/	8GG#\J	8e 8B/	.	8e/	od	.
8F#/	8AA\L	8f# 8e 8c#/	.	8f#/	cha-	.
8E/	8BB\	8g# 8e 8B/	.	8g#/	-ty	.
8C#/J	8C#\J	8aJ 8e 8A/	[	8a/	do	[[
*v	*v	*	*	*	*	*
=31	=31	=31	=31	=31	=31
!	!	!LO:HP:a	!	!	!
[4.A [4.D# [4.BB;\	(>4.cc# [4.f#;/	sf >	4.cc#;\	cha-	>
4A] 4D#] 4BB\]	4b 4f#/])	]	8b\	-ty	]
.	.	.	8r	.	.
!	!LO:TX:a:i:t=lento	!	!LO:TX:a:i:t=lento	!	!
8r	8r	.	8b\	prze-	.
!!LO:PB:g=original
=32	=32	=32	=32	=32	=32
*	*	*	*^	*	*
!	!	!	!	!	!	!LO:DY:t=e f
4G# 4E 4BB\	4ee 4b 4e/	f	4ee\	4ryy	-cho-	f
8r	8r	.	8b\	8ryy	-dzę	.
(<[4.BB 4.BBB\	(4.d# (>4.A< 4.F#</	.	8a/L	24a\LL	ca-	.
.	.	.	.	24b\	.	.
.	.	.	.	24a\JJ	.	.
.	.	.	8.g#/J	4ryy	.	.
.	.	.	16f#/	.	-łe	.
*	*	*	*v	*v	*	*
=33	=33	=33	=33	=33	=33
*	*^	*	*	*	*
!	!LO:TX:a:B:t=Tempo I°.	!	!	!LO:TX:a:B:t=Tempo I°.	!	!
8BB] 8EE\)	8e 8G#</))	4.ryy	.	4e/	sio-	.
8r	8r	.	ff	.	.	.
8BB 8EE'\	8B< 8G#< 8E<'/	.	.	8e/	-ło!	.
8BB 8EE'<\	8e 8B< 8G#<'>/	4ryy	.	4r	.	.
8r	8r	.	f	.	.	.
8E 8BB 8EE'/	8ee'/	8g#\	.	8r	.	.
=34	=34	=34	=34	=34	=34	=34
*ped	*	*	*	*	*	*
!LO:S:n=2:problem:note-level slur	!	!	!	!	!	!
4E (>4GG# 4EE/	(16ddn/LL	8.b\L	.	2.r	.	.
.	16ee/	.	.	.	.	.
.	16ffn/	.	.	.	.	.
.	16b/	8.g#\	.	.	.	.
*Xped	*	*	*	*	*	*
!LO:S:n=2:problem:note-level slur	!	!	!	!	!	!
8E 8BB) 8EE/	16ccn/	.	.	.	.	.
.	16dd/JJ	.	.	.	.	.
*ped	*	*	*	*	*	*
!LO:S:n=2:problem:note-level slur	!	!	!	!	!	!
4E (>4AA 4EE/	16cc/LL	8.a\	.	.	.	.
.	16dd/	.	.	.	.	.
.	16ee/	.	.	.	.	.
.	16f#X/	8.d#X\J	.	.	.	.
*Xped	*	*	*	*	*	*
!LO:S:n=2:problem:note-level slur	!	!	!	!	!	!
8E 8Cn 8EE/)	16g#/	.	.	.	.	.
.	16a/JJ	.	.	.	.	.
=35	=35	=35	=35	=35	=35	=35
*ped	*	*	*	*	*	*
8E 8BB 8EE/	16g#/LL	8.e\L	.	2.r	.	.
.	16a/	.	.	.	.	.
8r	16b/	.	.	.	.	.
.	16d#/	8.A\J	.	.	.	.
*Xped	*	*	*	*	*	*
8BB 8EE/	16g#/	.	.	.	.	.
.	16f#/JJ	.	.	.	.	.
8BB 8EE/	8e/)	8G#\	.	.	.	.
8r	8r	4ryy	p	.	.	.
8BB/	8e 8G#/	.	.	.	.	.
*	*v	*v	*	*	*	*
!!LO:LB:g=original
=36	=36	=36	=36	=36	=36
8BB\	8d# 8A< 8F#</	.	8d#/	Z_to-	.
8r	8r	.	8c#/	-bą	.
8D# 8BB\	8B< 8A< 8F#</	.	8B/	się	.
8E 8BB\	8B< 8G#</	.	4e/	nie	.
8r	8r	.	.	.	.
8BB\	8g# 8e 8B/	.	8g#/	na-	.
=37	=37	=37	=37	=37	=37
8F# 8BB\	8b 8d# 8B/	.	(4b\	-piesz-	.
8r	8r	.	.	.	.
8F# 8BB\	8a 8d# 8B/	.	8cc#\)	.	.
8G# 8E\	8g# 8e 8B/	.	4b\	-czę:	.
8r	8r	.	.	.	.
8E\	8g# 8B/	.	8g#/	i	.
=38	=38	=38	=38	=38	=38
8E 8C#/	8e 8G#/	.	8e/L	dzień	.
8r	8r	.	8d#/J	.	.
8E 8C#/	8e 8G#/	.	8e/	i	.
8E 8GG#/	8g# 8B/	.	4g#/	noc	.
8r	8r	.	.	.	.
8BB 8GG#/	8f# 8A/	.	8f#/	i	.
=39	=39	=39	=39	=39	=39
8E\	8e 8G#/	.	4e/	jesz-	.
8r	8r	.	.	.	.
8E\	8g# 8G#/	.	8g#/	-cze,	.
8E\	8B 8G#/	.	4B/	jesz-	.
8r	8r	.	.	.	.
(8E 8GG#/	(8B/	.	8B/	-cze	.
=40	=40	=40	=40	=40	=40
8E 8AA/)	8c# 8F#/)	.	8c#/	grał-	.
8r	8r	.	8d#/	-bym	.
(8E 8AA/	8f# 8c# 8F#/	.	8e/	bez	.
8E 8AA#X/)	8f# 8c# 8F#/	.	4.f#/	koń-	.
8r	8r	.	.	.	.
(8C# 8AA#/	8f# 8e 8c#/	.	.	.	.
!!LO:LB:g=original
=41	=41	=41	=41	=41	=41
*	*^	*	*	*	*
8BB/)	8B/	4.ryy	.	4B/	-ca,	.
8r	8r	.	ff	.	.	.
8BB 8BBB'/	8b 8f# 8d# 8B'/	.	.	8r	.	.
8BB 8EE'/	8b 8g# 8e 8B'/	4ryy	.	4r	.	.
8r	8r	.	.	.	.	.
!	!	!	!LO:DY:rj	!	!	!
8BB 8EE/	8ee'/	8g#\	p	8r	.	.
=42	=42	=42	=42	=42	=42	=42
*ped	*	*	*	*	*	*
8BB 8EE/	(16dd#/LL	8.b\L	.	2.r	.	.
.	16ee/	.	.	.	.	.
8r	16ff#/	.	.	.	.	.
.	16cc#/	8.a\	.	.	.	.
*Xped	*	*	*	*	*	*
8BB 8EE/	16dd#/	.	.	.	.	.
.	16ee/JJ	.	.	.	.	.
*ped	*	*	*	*	*	*
8BB 8EE/	16b/LL	8.g#\	.	.	.	.
.	16cc#/	.	.	.	.	.
8r	16ddn/	.	.	.	.	.
.	16g#/	8.e#X\J	.	.	.	.
*Xped	*	*	*	*	*	*
8G# 8BB 8EE/	16a/	.	.	.	.	.
.	16b/JJ	.	.	.	.	.
=43	=43	=43	=43	=43	=43	=43
*ped	*	*	*	*	*	*
4F# 4AA 4EE/	16f#/LL	8.c#\L	.	2.r	.	.
.	16g#/	.	.	.	.	.
.	16a/	.	.	.	.	.
.	16c#/	8.A\J	.	.	.	.
*Xped	*	*	*	*	*	*
8BB 8EE/	16g#/	.	.	.	.	.
.	16f#JJ 16d#/	.	.	.	.	.
8BB 8EE/	8e/)	8G#\	.	.	.	.
8r	8r	4ryy	p	.	.	.
8BB 8EE/	8e 8G#/	.	.	.	.	.
*	*v	*v	*	*	*	*
=44	=44	=44	=44	=44	=44
8BB 8EE/	8d# 8A 8F#/	.	8d#/	aż	.
8r	8r	.	8c#/	mi	.
8BB 8EE/	8B 8A 8F#/	.	8B/	się	.
8BB 8EE/	8B 8G#/	.	8B/L	w_pier-	.
8r	8r	.	8e/J	.	.
8BB 8EE/	8g# 8e 8B/	.	8g#/	-siach	.
!!LO:LB:g=original
=45	=45	=45	=45	=45	=45
8BB 8EE/	8b 8a 8f# 8d# 8B/	.	(4b\	wa-	.
8r	8r	.	.	.	.
8BB 8EE/	8a 8d# 8B/	.	8cc#\)	.	.
8BB 8EE/	8g# 8e 8B/	.	4b\	-rzy,	.
8r	8r	.	.	.	.
8E\	8g# 8e 8B/	.	8g#/	aż	.
=46	=46	=46	=46	=46	=46
*	*^	*	*	*	*
8D#\	8f# 8B/	4.ryy	.	4f#/	mi	.
8r	8r	.	.	.	.	.
!	!	!	!LO:HP:a	!	!	!
(<8F# 8D#\	(>8b 8f# 8B/	.	<	8f#/	do	.
4F# 4C#\	8a#X/L	4e\	.	8a#X/L	bla-	.
.	8g#/J	.	.	8g#/J	.	.
8A#X 8E\	8f#/	8c#\	.	8f#/	-dej	.
=47	=47	=47	=47	=47	=47	=47
4B 4D#\	4f#/	4f#\	.	(4f#/	twa-	.
8F# 8BB\	8dd# 8f# 8d#/	2ryy	.	8dd#\)	.	.
4F# 4AA#X\	4cc# 4f# 4c#/	.	.	4cc#\	-rzy	.
8F# 8D#\	8f# 8B/	.	[	8f#/	u-	.
*	*v	*v	*	*	*	*
=48	=48	=48	=48	=48	=48
!	!	!LO:HP:a	!	!	!
4C#\)	4a#X 4f# 4c#/)	>	8a#X/L	-de-	.
.	.	.	8g#/J	.	.
8C#\	(>8a# 8f# 8c#/	.	8a#/	-rza	.
4C#\	4b 4e#X 4c#/	.	4b\	krew	.
8G# 8C#\	8e# 8B/	]]	8e#X/	go-	.
=49	=49	=49	=49	=49	=49
*	*^	*	*	*	*
8F# 8C# 8FF#\	8f# 8A#X/)	4.ryy	.	8f#/	-rą-	.
8r	8r	.	f	8f#/	-ca.	.
8FF# 8FFF#'/	8f# 8e 8c# 8A#'/	.	.	8r	.	.
8BB 8BBB'/	8f# 8d# 8B'/	4ryy	.	4r	.	.
8r	8r	.	p	.	.	.
8F# 8BB\	8b/	8d#\	.	8r	.	.
!!LO:PB:g=original
=50	=50	=50	=50	=50	=50	=50
*^	*	*	*	*	*	*
*ped	*	*	*	*	*	*	*
(4.cn/	4F# 4BB\	(16an/LL	(4.e^\	.	2.r	.	.
.	.	16b/	.	.	.	.	.
.	.	16ccn/	.	.	.	.	.
.	.	16f#/	.	.	.	.	.
.	8F# 8BB\	16gn/	.	.	.	.	.
*Xped	*	*	*	*	*	*	*
.	.	16a/JJ	.	.	.	.	.
4.B/)	4F# 4BB\	4b/	4.d#^\)	.	.	.	.
.	8F# 8BB\	8b/	.	.	.	.	.
=51	=51	=51	=51	=51	=51	=51	=51
*ped	*	*	*	*	*	*	*
(4.cn/	4F# 4BB\	16a/LL	(4.e^\	.	4r	.	.
.	.	16b/	.	.	.	.	.
.	.	16ccn/	.	.	.	.	.
.	.	16f#/	.	.	.	.	.
.	8F# 8BB\	16gn/	.	.	8r	.	.
*Xped	*	*	*	*	*	*	*
.	.	16a/JJ	.	.	.	.	.
4.B/)	4F# 4BB\	4b/)	4.d#\)	.	4r	.	.
.	8BB\	8b/	.	.	[8b\	Niech	.
*v	*v	*	*	*	*	*	*
*	*v	*v	*	*	*	*
=52	=52	=52	=52	=52	=52
8G#X 8E\	8b 8dn/	.	8b\]	.	.
8r	8r	.	8a/	so-	.
8G# 8E\	8e 8d/	.	8b\	-bie	.
8A 8E 8AA\	8a 8c#/	.	8cc#\L	bo-	.
8r	8r	.	8a\J	.	.
8A 8E 8AA\	8e 8c#/	.	8e/	-li	.
=53	=53	=53	=53	=53	=53
(<4A 4Dn\	(>4f# 4dn^/	.	(4f#/	rę-	.
8A 8F#\	8a 8d/	.	8a/)	.	.
8A\)	8e 8c#/)	.	8e/	-ka,	.
8r	8r	.	8r	.	.
8A 8E 8AA\	8a 8c#/	.	(8a/	niech	.
!!LO:LB:g=original
=54	=54	=54	=54	=54	=54
8F# 8Dn\	8a 8cn/	.	8a/)	.	.
8r	8r	.	8gn/	so-	.
8F# 8D\	8dn 8c/	.	8a/	-bie	.
8Gn 8D 8GGn\	8gn 8B/	.	8b/L	ser-	.
8r	8r	.	8g/J	.	.
8G 8D 8GG\	8d 8B/	.	8dn/	-ce	.
=55	=55	=55	=55	=55	=55
(<4Gn 4Cn\	(>4e 4cn^/	.	(4e/	pę-	.
8G 8E\	8gn 8c/	.	8gn/)	.	.
8G\)	8dn 8B/)	.	8dn/	-ka,	.
8r	8r	.	8r	.	.
(<8BB 8GGn/	(>8d 8B/	.	8d/	ja	.
=56	=56	=56	=56	=56	=56
!	!LO:TX:a:i:t=riten.	!	!LO:TX:a:i:t=riten.	!	!
4C#X 4FF#X/	4e 4A#X/	.	4e/	prze-	.
.	.	<	.	.	.
8BB/	8f# 8d#X 8An/	.	8f#/	-cie	.
4E\	4gn 4e 4Gn/	.	8gn/	to-	.
.	.	.	8g/	-nów	.
8E 8Cn\	8a 8e/	[[	8a/	nie	.
=57	=57	=57	=57	=57	=57
*	*^	*	*	*	*
!	!LO:TX:a:B:t=a tempo	!	!	!LO:TX:a:B:t=a tempo	!	!
8F# 8BB'\)	8b 8d#'/)	4.ryy	.	2.b\	zni-	.
8r	8r	.	ff	.	.	.
8BB 8BBB'/	8bb 8aa 8ff# 8dd# 8b'\	.	.	.	.	.
8E 8BB 8EE'/	8bb 8gg# 8ee 8b'\	4ryy	.	.	.	.
8r	8r	.	.	.	.	.
8E 8BB 8EE/	8eee/	8gg#\	f	.	.	.
!!LO:LB:g=original
=58	=58	=58	=58	=58	=58	=58
*ped	*	*	*	*	*	*
4BB 4EE/	(16ddd#^^/LL	8.bb\L	>	4B/	-żę;	.
.	16eee/	.	.	.	.	.
.	16fff#/	.	.	.	.	.
.	16ccc#/	8.aa\	.	.	.	.
*Xped	*	*	*	*	*	*
8BB 8EE/	16ddd#/	.	.	8r	.	.
.	16eee/JJ	.	.	.	.	.
*ped	*	*	*	*	*	*
4BB 4EE/	16bb/LL	8.gg#\	.	4r	.	.
.	16ddd#/	.	.	.	.	.
.	16eee/	.	.	.	.	.
.	16gg#/	8.ee\J	.	.	.	.
*Xped	*	*	*	*	*	*
8BB 8EE/	16aa/	.	.	8r	.	.
.	16ccc#/JJ	.	.	.	.	.
=59	=59	=59	=59	=59	=59	=59
*ped	*	*	*	*	*	*
4BB 4EE/	16ff#/LL	8.dd#\L	.	2.r	.	.
.	16gg#/	.	.	.	.	.
.	16aa/	.	.	.	.	.
.	16cc#/	8.a\J	.	.	.	.
8BB 8EE/	16dd#/	.	.	.	.	.
.	16ff#/JJ	.	.	.	.	.
4BB 4EE/	8ee/L	4g#\	]	.	.	.
*Xped	*	*	*	*	*	*
.	8g#/J)	.	.	.	.	.
8BB 8EE/	(8ee/	8g#\	mf	.	.	.
=60	=60	=60	=60	=60	=60	=60
*ped	*	*	*	*	*	*
4BB 4EE/	16dd#^^/LL	8.b\L	>	4b\	nie	.
.	16ee/	.	.	.	.	.
.	16ff#/	.	.	.	.	.
.	16cc#/	8.a\	.	.	.	.
*Xped	*	*	*	*	*	*
8BB 8EE/	16dd#/	.	.	8a/	ża-	.
.	16ee/JJ	.	.	.	.	.
*ped	*	*	*	*	*	*
4BB 4EE/	16b/LL	8.g#\	.	8g#/	-łu-	.
.	16dd#/	.	.	.	.	.
.	16ee/	.	.	8.f#/	-ję	.
.	16g#/	8.e\J	.	.	.	.
*Xped	*	*	*	*	*	*
8BB 8EE/	16a/	.	.	.	.	.
.	16cc#/JJ	.	.	16g#/	mej	.
=61	=61	=61	=61	=61	=61	=61
*ped	*	*	*	*	*	*
4BB 4EE/	16f#/LL	8.d#\L	.	(>4a/	gło-	.
.	16g#/	.	.	.	.	.
.	16a/	.	.	.	.	.
.	16c#/	8.A\J	.	.	.	.
8BB 8EE/	16d#/	.	]	8d#/)	.	.
.	16f#/JJ	.	.	.	.	.
8BB 8EE/	4e/)	4G#\	.	4e/	-wy,	.
*Xped	*	*	*	*	*	*
8r	.	.	.	.	.	.
8GG#/	8B/	8ryy	.	8r	.	.
*	*v	*v	*	*	*	*
!!LO:LB:g=original
=62	=62	=62	=62	=62	=62
*^	*	*	*	*	*
!	!LO:TX:t=P:problem:mixed beam	!	!	!	!	!
8B>\L	8AA\L	8c#/L	.	8c#/L	wszak	<
!	!	!	!LO:HP:a	!	!	!
8A/	8FF#\	8d# 8B/	<	8d#/J	.	.
8G#/	8GG#\J	8e 8B/	.	8e/	ja	.
8F#/	8AA\L	8f# 8e 8c#/	.	8f#/	lir-	.
8E/	8BB\	8g# 8e 8B/	.	8g#/	-nik	.
8C#/J	8C#\J	8aJ 8e 8A/	[	8a/	wios-	[
*v	*v	*	*	*	*	*
=63	=63	=63	=63	=63	=63
!	!	!LO:HP:a	!	!	!
[4.A [4.D# [4.BB;\	(>4.cc# [4.f#;/	sf >	4.cc#;\	-ko-	>
4A] 4D#] 4BB\]	4b) 4f#/]	]	4b\	-wy	]
8r	8r	.	8r	.	.
=64	=64	=64	=64	=64	=64
*	*	*	*^	*	*
!	!LO:TX:a:i:t=Lento	!	!	!	!	!LO:DY:t=Lento e f
4G# 4E 4BB\	4ee 4b 4e/	f	4ee^\	4.ryy	skno-	f
8r	8r	.	8b\	.	-nam	.
(<[4.BB 4.BBB\	(4.d# 4.A< (4.F#</	.	8a/	24a\LL	gra-	.
.	.	.	.	24b\	.	.
.	.	.	.	24a\JJ	.	.
.	.	.	8.g#/	4ryy	-jąc	.
.	.	.	16f#/	.	na	.
*	*	*	*v	*v	*	*
=65	=65	=65	=65	=65	=65
*ped	*	*	*	*	*
8BB] 8EE\)	8e 8G#</))	.	8e/L	li-	.
8r	8r	ff	8e/J	-rze!	.
!LO:TX:b:i:t=rallent.	!	!	!	!	!
8E 8BB 8EE'\	8b 8g# 8e'/	.	8r	.	.
4E 4BB 4EE'\	4ee 4g# 4e'/	.	4r	.	.
!	!	!LO:DY:rj	!	!	!
8BB 8EE\	8B< 8G#< 8E</	p	8r	.	.
=66	=66	=66	=66	=66	=66
2.BB 2.EE;<\	2.e< 2.G#< 2.E<;/	.	2.r;	.	.
==	==	==	==	==	==
*-	*-	*-	*-	*-	*-
!!!system-decoration: <vox>{(klav)}
!!!RDF**kern: > = above
!!!RDF**kern: < = below
!!!ENC: Andrzej Gręziak
!!!END: 2022-08-19
!!!ENC: Andrzej Kubiczek
!!!END: 2022-09-25
!!!YEC: Copyright 2022 Narodowy Instytut Fryderyka Chopina (https://polishscores.org)
!!!YEM: License CC-BY-4.0 (https://creativecommons.org/licenses/by/4.0)
